X: 6479
T: Cat In The Garden, The
R: jig
M: 6/8
K: Gmajor
A|BGG BB/c/A|BGG dBG|EAA AGA|BGE A2c|
BGG BB/c/A|BGG dBG|ABc def|gdB/A/ G2:|
c|Bdd Add|Bdd efg|aba gfe|f/e/dB A2c|
Bdd Add|Bdd efg|ABc def|gdB/A/ G2:|

